!!!COM: Music21
!!!OTL: march_Meeting-Of-The-Waters--The
!!!OMV: march_Meeting-Of-The-Waters--The
**kern
*clefG2
*k[f#c#]
*D:
*M4/4
=1
8aL
8bJ
=||
4dd
8ddL
8ff#J
4a
8.ddL
16cc#Jk
=
8bL
8ddJ
8bL
8gJ
4a
8.ddL
16eeJk
=
8ff#L
8aaJ
8aL
8aaJ
8ggL
8ff#J
8eeL
8ddJ
=
2ff#
4ee
8aL
8bJ
=
4dd
8ddL
8ff#J
4a
8.ddL
16cc#Jk
!!linebreak:original
=
8bL
8ddJ
8bL
8gJ
4a
8.ddL
16eeJk
=
8ff#L
8aaJ
8ggL
8ff#J
8ggL
8aJ
8cc#L
8eeJ
=
4dd
4dd
4dd
8aL
8bJ
=||
4dd
8ddL
8ff#J
4a
8.ddL
16cc#Jk
=
8bL
8ddJ
8bL
8gJ
4a
8.ddL
16eeJk
!!linebreak:original
=
8ff#L
8aaJ
8aL
8aaJ
8ggL
8ff#J
8eeL
8ddJ
=
2ff#
4ee
8aL
8bJ
=
4dd
8ddL
8ff#J
4a
8.ddL
16cc#Jk
=
8bL
8ddJ
8bL
8gJ
4a
8.ddL
16eeJk
=
8ff#L
8aaJ
8ggL
8ff#J
8ggL
8aJ
8cc#L
8eeJ
=
4dd
4dd
4dd
8.aaL
16ggJk
!!linebreak:original
=||
4ff#
8.aaL
16ff#Jk
8ddL
8ff#J
8ff#L
8ddJ
=
8bL
8ggJ
8ggL
8bJ
4a
8.aaL
16ggJk
=
8ff#L
8aaJ
8aL
8aaJ
8ggL
8ff#J
8eeL
8ddJ
=
2ff#
4ee
8.aaL
16ggJk
=
4ff#
8.aaL
16ff#Jk
8ddL
8ff#J
8ff#L
8ddJ
=
8bL
8ggJ
8ggL
8bJ
4a
8.ddL
16eeJk
!!linebreak:original
=
8ff#L
8aaJ
8ggL
8ff#J
8ggL
8aJ
8cc#L
8eeJ
=
4dd
4dd
4dd
8.aaL
16ggJk
=||
4ff#
8.aaL
16ff#Jk
8ddL
8ff#J
8ff#L
8ddJ
=
8bL
8ggJ
8ggL
8bJ
4a
8.aaL
16ggJk
=
8ff#L
8aaJ
8aL
8aaJ
8ggL
8ff#J
8eeL
8ddJ
=
2ff#
4ee
8.aaL
16ggJk
!!linebreak:original
=
4ff#
8.aaL
16ff#Jk
8ddL
8ff#J
8ff#L
8ddJ
=
8bL
8ggJ
8ggL
8bJ
4a
8.ddL
16eeJk
=
8ff#L
8aaJ
8ggL
8ff#J
8ggL
8aJ
8cc#L
8eeJ
=
4dd
4dd
2dd
=||
*-
